assets/logos/pix.svg

<svg width="80" height="80" viewBox="0 0 80 80" fill="none" xmlns="http://www.w3.org/2000/svg">
<path fill-rule="evenodd" clip-rule="evenodd" d="M38.5438 32.2307C36.168 32.2309 34.2421 34.1569 34.2421 36.5329V50.7612C34.2421 51.0032 34.0459 51.1993 33.8039 51.1993C33.5619 51.1993 33.3657 51.0032 33.3657 50.7612V36.5329C33.3657 33.6728 35.6842 31.3544 38.5441 31.3544H38.5448L42.746 31.3607C45.598 31.3664 47.9071 33.68 47.9071 36.5321V39.5607C47.9071 42.4207 45.5885 44.7391 42.7286 44.7391H36.7923C36.5503 44.7391 36.3542 44.543 36.3542 44.301C36.3542 44.059 36.5503 43.8628 36.7923 43.8628H42.7286C45.1045 43.8628 47.0307 41.9367 47.0307 39.5607V36.5321C47.0307 34.1634 45.1131 32.2419 42.7445 32.2371C42.7444 32.2371 42.7443 32.2371 42.7442 32.2371L38.5441 32.2307C38.544 32.2307 38.5439 32.2307 38.5438 32.2307Z" fill="#939598"/>
<path fill-rule="evenodd" clip-rule="evenodd" d="M48.2046 31.7907C48.2046 31.5487 48.4008 31.3525 48.6428 31.3525H50.4651C51.7815 31.3525 52.8485 32.4197 52.8485 33.7361V44.3647C52.8485 44.6067 52.6523 44.8029 52.4103 44.8029C52.1683 44.8029 51.9722 44.6067 51.9722 44.3647V33.7361C51.9722 32.9036 51.2975 32.2289 50.4651 32.2289H48.6428C48.4008 32.2289 48.2046 32.0327 48.2046 31.7907Z" fill="#939598"/>
<path d="M52.0196 30.144L51.1932 29.3175C50.988 29.1125 50.988 28.78 51.1932 28.575L52.019 27.749C52.2245 27.5436 52.5574 27.5436 52.7626 27.749L53.5885 28.575C53.7937 28.78 53.7937 29.1125 53.5885 29.3175L52.7621 30.144C52.5571 30.3491 52.2247 30.3491 52.0196 30.144Z" fill="#32BCAD"/>
<path fill-rule="evenodd" clip-rule="evenodd" d="M55.468 31.7812C55.468 31.5392 55.6642 31.343 55.9062 31.343H57.7134C58.7594 31.343 59.7625 31.7585 60.5019 32.498L64.729 36.7251L64.729 36.7251C65.1054 37.1016 65.7157 37.1016 66.0922 36.7251L70.3038 32.5135L70.3039 32.5135C71.0434 31.774 72.0463 31.3585 73.0923 31.3585H74.5616C74.8036 31.3585 74.9998 31.5547 74.9998 31.7967C74.9998 32.0387 74.8036 32.2348 74.5616 32.2348H73.0923C72.2788 32.2348 71.4987 32.558 70.9235 33.1332L66.7119 37.3448C65.9932 38.0635 64.828 38.0635 64.1093 37.3448C64.1093 37.3448 64.1093 37.3448 64.1093 37.3447L59.8822 33.1177C59.3071 32.5426 58.527 32.2194 57.7134 32.2194H55.9062C55.6642 32.2194 55.468 32.0232 55.468 31.7812Z" fill="#939598"/>
<path fill-rule="evenodd" clip-rule="evenodd" d="M66.0922 39.3277C65.7157 38.9512 65.1054 38.9512 64.729 39.3276L64.729 39.3277L60.5019 43.5547C59.7625 44.2942 58.7594 44.7097 57.7134 44.7097H55.9062C55.6642 44.7097 55.468 44.5136 55.468 44.2716C55.468 44.0296 55.6642 43.8334 55.9062 43.8334H57.7134C58.527 43.8334 59.3071 43.5102 59.8822 42.9351L64.1093 38.708C64.1093 38.708 64.1093 38.708 64.1093 38.708C64.828 37.9892 65.9932 37.9893 66.7119 38.708L70.9235 42.9196C71.4987 43.4947 72.2788 43.8179 73.0923 43.8179H74.5616C74.8036 43.8179 74.9998 44.0141 74.9998 44.2561C74.9998 44.4981 74.8036 44.6943 74.5616 44.6943H73.0923C72.0463 44.6943 71.0434 44.2787 70.3039 43.5393L70.3038 43.5393L66.0922 39.3277Z" fill="#939598"/>
<path d="M23.0293 46.9722C22.1223 46.9722 21.2692 46.619 20.6278 45.9779L17.1603 42.5103C16.9169 42.2662 16.4926 42.2669 16.2492 42.5103L12.769 45.9906C12.1276 46.6317 11.2745 46.9848 10.3675 46.9848H9.6842L14.0759 51.3764C15.4474 52.7479 17.6712 52.7479 19.0428 51.3764L23.447 46.9722H23.0293Z" fill="#32BCAD"/>
<path d="M10.3673 34.7068C11.2743 34.7068 12.1274 35.06 12.7688 35.7011L16.249 39.1819C16.4996 39.4326 16.9089 39.4335 17.1601 39.1816L20.6276 35.7138C21.269 35.0727 22.1221 34.7195 23.0291 34.7195H23.4468L19.0427 30.3153C17.671 28.9437 15.4472 28.9437 14.0757 30.3153L9.6842 34.7068L10.3673 34.7068Z" fill="#32BCAD"/>
<path d="M27.0898 38.3625L24.4283 35.701C24.3697 35.7245 24.3063 35.7391 24.2393 35.7391H23.0292C22.4036 35.7391 21.7912 35.9929 21.3491 36.4353L17.8817 39.9028C17.5572 40.2273 17.1308 40.3896 16.7049 40.3896C16.2785 40.3896 15.8524 40.2273 15.528 39.9031L12.0475 36.4226C11.6055 35.9801 10.993 35.7265 10.3674 35.7265H8.87951C8.81604 35.7265 8.75674 35.7115 8.70075 35.6904L6.0287 38.3625C4.6571 39.7341 4.6571 41.9577 6.0287 43.3293L8.70064 46.0013C8.75673 45.9802 8.81604 45.9652 8.87951 45.9652H10.3674C10.993 45.9652 11.6055 45.7116 12.0475 45.2692L15.5277 41.7891C16.1567 41.1605 17.2533 41.1603 17.8817 41.7893L21.3491 45.2565C21.7912 45.6989 22.4036 45.9527 23.0292 45.9527H24.2393C24.3063 45.9527 24.3697 45.9673 24.4283 45.9908L27.0898 43.3293C28.4613 41.9577 28.4613 39.7341 27.0898 38.3625Z" fill="#32BCAD"/>
<path d="M37.4165 49.5518C37.2201 49.5518 36.9915 49.599 36.7653 49.6512V50.5182C36.922 50.5754 37.1008 50.6029 37.2723 50.6029C37.7071 50.6029 37.9133 50.4563 37.9133 50.0733C37.9133 49.7133 37.7444 49.5518 37.4165 49.5518ZM36.6187 51.162V49.4473H36.738L36.7505 49.522C36.9516 49.4747 37.2299 49.4126 37.4287 49.4126C37.5904 49.4126 37.7444 49.4372 37.8735 49.5417C38.0228 49.6637 38.0699 49.8598 38.0699 50.0733C38.0699 50.2974 37.9952 50.5084 37.7915 50.6251C37.65 50.7046 37.4586 50.7369 37.2872 50.7369C37.1107 50.7369 36.9418 50.7095 36.7653 50.6575V51.162H36.6187Z" fill="#939598"/>
<path d="M39.1616 49.5466C38.7267 49.5466 38.5329 49.6834 38.5329 50.066C38.5329 50.4362 38.7242 50.6028 39.1616 50.6028C39.5939 50.6028 39.7877 50.4685 39.7877 50.0859C39.7877 49.7157 39.5965 49.5466 39.1616 49.5466ZM39.7206 50.6028C39.5764 50.707 39.3827 50.7369 39.1616 50.7369C38.9355 50.7369 38.7415 50.7046 38.6 50.6028C38.4409 50.4911 38.3762 50.307 38.3762 50.0761C38.3762 49.8473 38.4409 49.6611 38.6 49.5466C38.7415 49.4449 38.9355 49.4125 39.1616 49.4125C39.3851 49.4125 39.5764 49.4449 39.7206 49.5466C39.8822 49.6611 39.9442 49.8473 39.9442 50.0733C39.9442 50.3046 39.8796 50.4911 39.7206 50.6028Z" fill="#939598"/>
<path d="M41.7789 50.7021L41.2943 49.6611H41.2842L40.8073 50.7021H40.6756L40.1587 49.4471H40.3202L40.7501 50.5007H40.7601L41.2271 49.4471H41.3613L41.841 50.5007H41.851L42.2709 49.4471H42.4273L41.9106 50.7021H41.7789Z" fill="#939598"/>
<path d="M43.3647 49.5441C42.9623 49.5441 42.8256 49.7229 42.8006 49.9816H43.9289C43.9165 49.6958 43.7697 49.5441 43.3647 49.5441ZM43.3599 50.7368C43.1187 50.7368 42.9623 50.7021 42.838 50.5976C42.6914 50.4709 42.6416 50.2872 42.6416 50.076C42.6416 49.8747 42.7088 49.661 42.8753 49.5392C43.0144 49.4424 43.1859 49.4125 43.3647 49.4125C43.5264 49.4125 43.7127 49.4298 43.8666 49.5343C44.0481 49.6559 44.083 49.8698 44.083 50.1132H42.7957C42.8006 50.3715 42.8852 50.6003 43.3721 50.6003C43.6033 50.6003 43.8195 50.5629 44.0208 50.5281V50.6597C43.812 50.6972 43.5809 50.7368 43.3599 50.7368Z" fill="#939598"/>
<path d="M44.5037 50.7021V49.4472H44.6229L44.6355 49.5219C44.9013 49.4549 45.0255 49.4125 45.2591 49.4125H45.2766V49.5517H45.2417C45.0455 49.5517 44.9262 49.5789 44.6504 49.6511V50.7021H44.5037Z" fill="#939598"/>
<path d="M46.1282 49.5441C45.7257 49.5441 45.589 49.7229 45.5641 49.9816H46.6923C46.6799 49.6958 46.5332 49.5441 46.1282 49.5441ZM46.1233 50.7368C45.8821 50.7368 45.7257 50.7021 45.6015 50.5976C45.4547 50.4709 45.405 50.2872 45.405 50.076C45.405 49.8747 45.4722 49.661 45.6387 49.5392C45.7778 49.4424 45.9493 49.4125 46.1282 49.4125C46.2898 49.4125 46.4761 49.4298 46.6301 49.5343C46.8115 49.6559 46.8464 49.8698 46.8464 50.1132H45.5592C45.5641 50.3715 45.6486 50.6003 46.1355 50.6003C46.3667 50.6003 46.5828 50.5629 46.7842 50.5281V50.6597C46.5754 50.6972 46.3443 50.7368 46.1233 50.7368Z" fill="#939598"/>
<path d="M48.4523 49.6313C48.2958 49.574 48.1169 49.5466 47.9454 49.5466C47.5106 49.5466 47.3042 49.6935 47.3042 50.076C47.3042 50.4386 47.4732 50.5977 47.8011 50.5977C47.9976 50.5977 48.2262 50.5504 48.4523 50.5008V49.6313ZM48.4797 50.7022L48.4673 50.6275C48.266 50.6747 47.9876 50.737 47.7888 50.737C47.6275 50.737 47.4732 50.7146 47.344 50.6077C47.195 50.4859 47.1477 50.2896 47.1477 50.076C47.1477 49.8524 47.2223 49.641 47.426 49.5268C47.5676 49.4448 47.759 49.4125 47.933 49.4125C48.1069 49.4125 48.2759 49.4424 48.4523 49.4921V48.9181H48.599V50.7022H48.4797Z" fill="#939598"/>
<path d="M50.7488 49.5517C50.5523 49.5517 50.3237 49.5989 50.0976 49.6511V50.5157C50.2567 50.5753 50.4331 50.6028 50.6046 50.6028C51.0394 50.6028 51.2456 50.4562 51.2456 50.0732C51.2456 49.7132 51.0767 49.5517 50.7488 49.5517ZM51.1239 50.625C50.9823 50.7045 50.7909 50.7368 50.6194 50.7368C50.4331 50.7368 50.2468 50.7045 50.0579 50.6424L50.0504 50.7021H49.9509V48.918H50.0976V49.5167C50.2989 49.4722 50.5697 49.4125 50.761 49.4125C50.9227 49.4125 51.0767 49.4371 51.2058 49.5416C51.355 49.6635 51.4022 49.8597 51.4022 50.0732C51.4022 50.2973 51.3275 50.5083 51.1239 50.625Z" fill="#939598"/>
<path d="M51.5969 51.1841V51.0476C51.6688 51.0549 51.7361 51.06 51.7833 51.06C51.9648 51.06 52.0739 51.0077 52.1758 50.8014L52.2231 50.7021L51.5671 49.4471H51.7361L52.2978 50.5305H52.3076L52.8418 49.4471H53.0083L52.3026 50.8562C52.1734 51.1122 52.0342 51.1965 51.7783 51.1965C51.7211 51.1965 51.6591 51.1916 51.5969 51.1841Z" fill="#939598"/>
<path d="M55.0291 49.9865H54.5421V50.4264H55.0315C55.367 50.4264 55.4938 50.3889 55.4938 50.2052C55.4938 50.0087 55.3199 49.9865 55.0291 49.9865ZM54.9397 49.2733H54.5421V49.7204H54.9421C55.2726 49.7204 55.4042 49.6809 55.4042 49.4944C55.4042 49.2958 55.2378 49.2733 54.9397 49.2733ZM55.6951 50.583C55.516 50.6972 55.2999 50.7021 54.9048 50.7021H54.1619V49H54.8875C55.2279 49 55.4366 49.0049 55.6105 49.1094C55.7349 49.184 55.7844 49.2982 55.7844 49.4473C55.7844 49.626 55.71 49.7455 55.516 49.825V49.8348C55.7349 49.8848 55.8764 49.9965 55.8764 50.2375C55.8764 50.4014 55.8168 50.5083 55.6951 50.583Z" fill="#939598"/>
<path d="M57.3628 50.1754C57.216 50.1628 57.067 50.1556 56.9105 50.1556C56.6546 50.1556 56.565 50.2077 56.565 50.3244C56.565 50.4337 56.6396 50.4935 56.8358 50.4935C56.9998 50.4935 57.1962 50.4563 57.3628 50.4188V50.1754ZM57.4372 50.7021L57.4273 50.6276C57.2135 50.6799 56.9652 50.7369 56.7464 50.7369C56.6121 50.7369 56.4681 50.7195 56.3661 50.6449C56.2719 50.5779 56.2271 50.4685 56.2271 50.3418C56.2271 50.2 56.2893 50.0684 56.4382 50.0014C56.5699 49.9393 56.7464 49.9344 56.908 49.9344C57.0396 49.9344 57.216 49.9417 57.3628 49.9518V49.9293C57.3628 49.733 57.2334 49.6684 56.8806 49.6684C56.7439 49.6684 56.5774 49.6757 56.4184 49.6907V49.4372C56.5947 49.4226 56.7937 49.4125 56.9577 49.4125C57.1762 49.4125 57.4025 49.4299 57.5416 49.5292C57.6856 49.6312 57.7131 49.7729 57.7131 49.959V50.7021L57.4372 50.7021Z" fill="#939598"/>
<path d="M59.3516 50.7021V50.0087C59.3516 49.7803 59.2349 49.6982 59.026 49.6982C58.8721 49.6982 58.6783 49.7379 58.5142 49.7778V50.7021H58.1638V49.4472H58.4496L58.462 49.5267C58.6831 49.4697 58.9292 49.4125 59.133 49.4125C59.287 49.4125 59.4436 49.4347 59.5628 49.5417C59.6621 49.6312 59.6995 49.7552 59.6995 49.9343V50.7021H59.3516Z" fill="#939598"/>
<path d="M60.6895 50.7369C60.5279 50.7369 60.3514 50.7147 60.2222 50.6053C60.0682 50.481 60.0234 50.2848 60.0234 50.0733C60.0234 49.8747 60.0881 49.6585 60.2794 49.5368C60.436 49.4348 60.6297 49.4126 60.831 49.4126C60.9752 49.4126 61.1169 49.4226 61.2733 49.4372V49.7056C61.1465 49.6935 60.9949 49.6834 60.8733 49.6834C60.5402 49.6834 60.3838 49.7879 60.3838 50.0761C60.3838 50.347 60.5005 50.4637 60.7738 50.4637C60.9328 50.4637 61.1194 50.4338 61.3007 50.399V50.6574C61.1043 50.6974 60.8907 50.7369 60.6895 50.7369Z" fill="#939598"/>
<path d="M62.3354 49.6758C62.0024 49.6758 61.8557 49.7803 61.8557 50.066C61.8557 50.3519 61.9999 50.4737 62.3354 50.4737C62.6658 50.4737 62.8098 50.3716 62.8098 50.0859C62.8098 49.8001 62.6684 49.6758 62.3354 49.6758ZM62.9367 50.6053C62.7826 50.7095 62.5813 50.7369 62.3354 50.7369C62.0843 50.7369 61.8831 50.7071 61.7316 50.6053C61.5576 50.4911 61.4954 50.3022 61.4954 50.0761C61.4954 49.8498 61.5576 49.6585 61.7316 49.5442C61.8831 49.4424 62.0843 49.4126 62.3354 49.4126C62.5839 49.4126 62.7826 49.4424 62.9367 49.5442C63.1106 49.6585 63.1703 49.8498 63.1703 50.0734C63.1703 50.2998 63.1081 50.4911 62.9367 50.6053Z" fill="#939598"/>
<path d="M65.1932 50.7368C64.9822 50.7368 64.7536 50.7021 64.582 50.5604C64.3783 50.3913 64.3162 50.1305 64.3162 49.8496C64.3162 49.5988 64.3956 49.3006 64.6615 49.1267C64.8677 48.9926 65.1236 48.9652 65.3821 48.9652C65.5711 48.9652 65.7648 48.9777 65.9761 48.995V49.3006C65.7947 49.2856 65.5711 49.2732 65.3971 49.2732C64.9125 49.2732 64.7063 49.4573 64.7063 49.8496C64.7063 50.25 64.8975 50.4289 65.2555 50.4289C65.489 50.4289 65.7499 50.3816 66.0133 50.3267V50.6298C65.7499 50.6823 65.474 50.7368 65.1932 50.7368Z" fill="#939598"/>
<path d="M67.0427 49.6361C66.7519 49.6361 66.64 49.7406 66.6176 49.9319H67.4626C67.4526 49.7281 67.3333 49.6361 67.0427 49.6361ZM66.9903 50.7369C66.7842 50.7369 66.5978 50.7122 66.4586 50.5976C66.3096 50.4736 66.2573 50.2872 66.2573 50.0733C66.2573 49.882 66.3195 49.6684 66.4935 49.5441C66.6475 49.4348 66.8439 49.4125 67.0427 49.4125C67.2215 49.4125 67.4328 49.4323 67.5868 49.5392C67.7882 49.6809 67.8055 49.8996 67.8079 50.158H66.6152C66.6226 50.3494 66.7245 50.4736 67.0774 50.4736C67.296 50.4736 67.5395 50.4413 67.7459 50.409V50.655C67.5048 50.6949 67.2414 50.7369 66.9903 50.7369Z" fill="#939598"/>
<path d="M69.3669 50.7021V50.0087C69.3669 49.7803 69.2503 49.6982 69.0414 49.6982C68.8874 49.6982 68.6937 49.7379 68.5296 49.7778V50.7021H68.1792V49.4472H68.465L68.4774 49.5267C68.6984 49.4697 68.9446 49.4125 69.1484 49.4125C69.3023 49.4125 69.459 49.4347 69.5782 49.5417C69.6775 49.6312 69.7149 49.7552 69.7149 49.9343V50.7021H69.3669Z" fill="#939598"/>
<path d="M70.7122 50.7369C70.5433 50.7369 70.3891 50.6897 70.3047 50.5581C70.2426 50.4685 70.2127 50.347 70.2127 50.1779V49.7081H69.9592V49.4473H70.2127L70.2501 49.067H70.5606V49.4473H71.0551V49.7081H70.5606V50.1108C70.5606 50.2077 70.568 50.2897 70.5953 50.3494C70.6326 50.4338 70.7146 50.466 70.824 50.466C70.9059 50.466 71.0054 50.4536 71.0749 50.4414V50.6922C70.9607 50.7147 70.8288 50.7369 70.7122 50.7369Z" fill="#939598"/>
<path d="M71.397 50.7021V49.4472H71.6828L71.6953 49.5267C71.9264 49.4621 72.0978 49.4125 72.3165 49.4125C72.3264 49.4125 72.3414 49.4125 72.3611 49.4148V49.7131C72.3213 49.7108 72.2742 49.7108 72.2394 49.7108C72.0679 49.7108 71.9387 49.7305 71.7473 49.7754V50.7021L71.397 50.7021Z" fill="#939598"/>
<path d="M73.6347 50.1754C73.4881 50.1628 73.339 50.1556 73.1825 50.1556C72.9266 50.1556 72.8369 50.2077 72.8369 50.3244C72.8369 50.4337 72.9116 50.4935 73.1078 50.4935C73.2719 50.4935 73.4681 50.4563 73.6347 50.4188V50.1754ZM73.7092 50.7021L73.6994 50.6276C73.4856 50.6799 73.2371 50.7369 73.0184 50.7369C72.8842 50.7369 72.7401 50.7195 72.6381 50.6449C72.5439 50.5779 72.499 50.4685 72.499 50.3418C72.499 50.2 72.5613 50.0684 72.7103 50.0014C72.842 49.9393 73.0184 49.9344 73.18 49.9344C73.3117 49.9344 73.4881 49.9417 73.6347 49.9518V49.9293C73.6347 49.733 73.5054 49.6684 73.1526 49.6684C73.016 49.6684 72.8494 49.6757 72.6904 49.6907V49.4372C72.8667 49.4226 73.0656 49.4125 73.2298 49.4125C73.4483 49.4125 73.6745 49.4299 73.8136 49.5292C73.9577 49.6312 73.9851 49.7729 73.9851 49.959V50.7021L73.7092 50.7021Z" fill="#939598"/>
<path d="M74.4358 48.9181H74.7862V50.7022H74.4358V48.9181Z" fill="#939598"/>
</svg>

<svg xmlns="http://www.w3.org/2000/svg" width="80" height="80" fill="none" viewBox="0 0 80 80"><path fill="#939598" fill-rule="evenodd" d="M38.544 32.23a4.3 4.3 0 0 0-4.302 4.303V50.76a.438.438 0 0 1-.876 0V36.533a5.18 5.18 0 0 1 5.178-5.179l4.202.007a5.17 5.17 0 0 1 5.161 5.171v3.029a5.18 5.18 0 0 1-5.178 5.178h-5.937a.438.438 0 1 1 0-.876h5.937a4.3 4.3 0 0 0 4.302-4.302v-3.029a4.295 4.295 0 0 0-4.286-4.295zm9.661-.44c0-.241.196-.437.438-.437h1.822a2.383 2.383 0 0 1 2.383 2.383v10.629a.438.438 0 0 1-.876 0V33.736c0-.832-.675-1.507-1.507-1.507h-1.822a.44.44 0 0 1-.438-.438" clip-rule="evenodd"/><path fill="#32bcad" d="m52.02 30.144-.827-.826a.525.525 0 0 1 0-.743l.826-.826a.526.526 0 0 1 .744 0l.826.826a.525.525 0 0 1 0 .742l-.827.827a.525.525 0 0 1-.742 0"/><path fill="#939598" fill-rule="evenodd" d="M55.468 31.781c0-.242.196-.438.438-.438h1.807c1.046 0 2.05.416 2.789 1.155l4.227 4.227a.964.964 0 0 0 1.363 0l4.212-4.212a3.94 3.94 0 0 1 2.788-1.154h1.47a.438.438 0 0 1 0 .876h-1.47c-.813 0-1.593.323-2.168.898l-4.212 4.212a1.84 1.84 0 0 1-2.603 0l-4.227-4.227a3.07 3.07 0 0 0-2.169-.899h-1.807a.44.44 0 0 1-.438-.438" clip-rule="evenodd"/><path fill="#939598" fill-rule="evenodd" d="M66.092 39.328a.964.964 0 0 0-1.363 0l-4.227 4.227a3.94 3.94 0 0 1-2.789 1.155h-1.807a.438.438 0 1 1 0-.877h1.807a3.07 3.07 0 0 0 2.17-.898l4.226-4.227a1.84 1.84 0 0 1 2.603 0l4.212 4.212a3.07 3.07 0 0 0 2.168.898h1.47a.438.438 0 0 1 0 .876h-1.47a3.94 3.94 0 0 1-2.788-1.155z" clip-rule="evenodd"/><path fill="#32bcad" d="M23.03 46.972c-.908 0-1.76-.353-2.402-.994L17.16 42.51a.66.66 0 0 0-.91 0l-3.481 3.48a3.38 3.38 0 0 1-2.402.995h-.683l4.392 4.391a3.51 3.51 0 0 0 4.967 0l4.404-4.404zM10.367 34.707c.907 0 1.76.353 2.402.994l3.48 3.48c.25.252.66.253.911 0l3.468-3.467a3.38 3.38 0 0 1 2.401-.995h.418l-4.404-4.404a3.51 3.51 0 0 0-4.967 0l-4.392 4.392z"/><path fill="#32bcad" d="M27.09 38.363 24.428 35.7a.5.5 0 0 1-.189.038h-1.21c-.625 0-1.238.254-1.68.696l-3.467 3.468a1.66 1.66 0 0 1-1.177.487 1.66 1.66 0 0 1-1.177-.487l-3.48-3.48a2.4 2.4 0 0 0-1.68-.697H8.88a.5.5 0 0 1-.18-.036l-2.67 2.673a3.51 3.51 0 0 0 0 4.967l2.67 2.672a.5.5 0 0 1 .179-.036h1.487c.626 0 1.238-.253 1.68-.696l3.48-3.48c.63-.629 1.726-.629 2.355 0l3.467 3.468a2.4 2.4 0 0 0 1.68.696h1.21q.1.001.19.038l2.66-2.662a3.51 3.51 0 0 0 0-4.967"/><path fill="#939598" d="M37.417 49.552c-.197 0-.425.047-.652.1v.866c.157.057.336.085.507.085.435 0 .641-.147.641-.53 0-.36-.169-.521-.496-.521m-.798 1.61v-1.715h.119l.013.075c.2-.047.479-.11.678-.11.161 0 .315.025.444.13.15.122.197.318.197.531 0 .224-.075.435-.279.552-.141.08-.332.112-.504.112-.176 0-.345-.028-.522-.08v.505zm2.543-1.615c-.435 0-.63.136-.63.519 0 .37.192.537.63.537.432 0 .626-.135.626-.517 0-.37-.191-.54-.626-.54m.559 1.056c-.145.104-.338.134-.56.134-.226 0-.42-.032-.561-.134-.16-.112-.224-.296-.224-.527 0-.229.065-.415.224-.53.142-.101.335-.133.562-.133.223 0 .414.032.559.134.161.114.223.3.223.526 0 .232-.064.418-.223.53m2.058.1-.485-1.04h-.01l-.477 1.04h-.131l-.517-1.255h.161l.43 1.054h.01l.467-1.054h.134l.48 1.054h.01l.42-1.054h.156l-.516 1.255zm1.586-1.158c-.403 0-.54.179-.564.438h1.128c-.013-.286-.16-.438-.564-.438m-.005 1.193c-.241 0-.398-.035-.522-.14-.147-.126-.196-.31-.196-.521 0-.201.067-.415.233-.537.14-.097.31-.127.49-.127.161 0 .348.018.502.122.181.122.216.336.216.58h-1.287c.005.258.09.486.576.486.231 0 .447-.037.649-.072v.132c-.209.037-.44.077-.661.077m1.144-.035v-1.255h.119l.013.075c.265-.067.39-.11.623-.11h.018v.14h-.035c-.197 0-.316.027-.592.1v1.05zm1.624-1.158c-.402 0-.539.179-.564.438h1.128c-.012-.286-.159-.438-.564-.438m-.005 1.193c-.24 0-.397-.035-.521-.14-.147-.126-.197-.31-.197-.521 0-.201.067-.415.234-.537.139-.097.31-.127.49-.127.16 0 .347.018.501.122.181.122.216.336.216.58H45.56c.005.258.09.486.577.486.23 0 .447-.037.648-.072v.132c-.209.037-.44.077-.66.077m2.327-1.106a1.5 1.5 0 0 0-.507-.084c-.434 0-.64.147-.64.529 0 .363.168.522.496.522.197 0 .425-.048.651-.097zm.028 1.071-.013-.075c-.201.048-.48.11-.678.11-.162 0-.316-.022-.445-.13-.149-.121-.196-.317-.196-.531 0-.224.074-.435.278-.55a1.05 1.05 0 0 1 .507-.114c.174 0 .343.03.52.08v-.574h.146v1.784zm2.269-1.15c-.197 0-.425.047-.651.1v.864c.159.06.335.087.507.087.434 0 .64-.147.64-.53 0-.36-.168-.521-.496-.521m.375 1.073a1.1 1.1 0 0 1-.505.112q-.278 0-.561-.095l-.008.06h-.1v-1.784h.148v.599c.2-.045.472-.105.663-.105.162 0 .316.025.445.13.149.121.196.318.196.531 0 .224-.075.435-.278.552m.473.559v-.136c.072.007.14.012.186.012.182 0 .29-.052.393-.259l.047-.099-.656-1.255h.17l.56 1.084h.01l.535-1.084h.166l-.705 1.41c-.13.255-.269.34-.525.34q-.087 0-.181-.013m3.433-1.197h-.488v.44h.49c.335 0 .462-.038.462-.222 0-.196-.174-.218-.465-.218m-.09-.714h-.398v.447h.4c.33 0 .462-.04.462-.226 0-.198-.166-.22-.464-.22m.755 1.31c-.179.114-.395.12-.79.12h-.743V49h.726c.34 0 .549.005.723.11.124.074.173.188.173.337 0 .179-.074.298-.268.378v.01c.219.05.36.161.36.402 0 .164-.06.271-.18.346m1.668-.408a5 5 0 0 0-.453-.02c-.255 0-.345.053-.345.17 0 .109.075.168.27.168.165 0 .361-.037.528-.074zm.074.527-.01-.074c-.213.052-.462.109-.68.109-.135 0-.279-.018-.38-.092-.095-.067-.14-.177-.14-.303 0-.142.062-.274.211-.34.132-.063.308-.068.47-.068.132 0 .308.008.455.018v-.023c0-.196-.13-.26-.482-.26-.137 0-.304.007-.463.022v-.254c.177-.014.376-.024.54-.024.218 0 .445.017.584.116.144.102.171.244.171.43v.743zm1.915 0v-.693c0-.229-.117-.31-.326-.31a2.4 2.4 0 0 0-.512.079v.924h-.35v-1.255h.286l.012.08c.221-.057.467-.114.671-.114.154 0 .31.022.43.129.1.09.136.213.136.392v.768zm1.338.035c-.162 0-.339-.022-.468-.132-.154-.124-.199-.32-.199-.532 0-.198.065-.415.256-.536.157-.102.35-.124.552-.124.144 0 .286.01.442.024v.269a5 5 0 0 0-.4-.023c-.333 0-.49.105-.49.393 0 .271.117.388.39.388.16 0 .346-.03.528-.065v.258c-.197.04-.41.08-.611.08m1.645-1.061c-.333 0-.48.104-.48.39s.145.408.48.408c.33 0 .475-.102.475-.388s-.142-.41-.475-.41m.602.93c-.154.103-.356.13-.602.13-.25 0-.452-.029-.603-.13-.174-.115-.237-.304-.237-.53s.063-.418.237-.532c.151-.102.352-.131.603-.131.249 0 .448.03.602.131.174.114.233.306.233.53 0 .226-.062.417-.233.531m2.256.132c-.21 0-.44-.035-.611-.177-.204-.169-.266-.43-.266-.71 0-.251.08-.55.346-.723.206-.134.462-.162.72-.162.19 0 .383.013.594.03v.306a8 8 0 0 0-.579-.028c-.485 0-.69.184-.69.577 0 .4.19.579.549.579.233 0 .494-.047.757-.102v.303c-.263.052-.539.107-.82.107m1.85-1.101c-.291 0-.403.105-.425.296h.845c-.01-.204-.13-.296-.42-.296m-.053 1.1c-.206 0-.392-.024-.531-.138-.15-.124-.202-.31-.202-.525 0-.191.063-.405.236-.529.154-.11.35-.131.55-.131.178 0 .39.02.544.126.201.142.218.36.22.619h-1.192c.008.191.11.316.462.316.219 0 .463-.033.669-.065v.246c-.241.04-.505.082-.756.082m2.377-.035v-.693c0-.229-.117-.31-.326-.31-.154 0-.347.039-.511.079v.924h-.35v-1.255h.285l.012.08c.221-.057.468-.114.671-.114.154 0 .311.022.43.129.1.09.137.213.137.392v.768zm1.345.035c-.169 0-.323-.047-.407-.179-.062-.09-.092-.211-.092-.38v-.47h-.254v-.26h.254l.037-.381h.31v.38h.495v.261h-.494v.403a.6.6 0 0 0 .034.238c.038.085.12.117.229.117.082 0 .181-.012.25-.025v.251a2 2 0 0 1-.362.045m.685-.035v-1.255h.286l.012.08c.231-.065.403-.114.622-.114l.044.002v.298c-.04-.002-.087-.002-.122-.002-.171 0-.3.02-.492.064v.927zm2.238-.527a5 5 0 0 0-.453-.02c-.255 0-.345.053-.345.17 0 .109.075.168.27.168.165 0 .361-.037.528-.074zm.074.527-.01-.074c-.213.052-.462.109-.68.109-.135 0-.279-.018-.38-.092-.095-.067-.14-.177-.14-.303 0-.142.062-.274.211-.34.132-.063.308-.068.47-.068.132 0 .308.008.455.018v-.023c0-.196-.13-.26-.482-.26a5 5 0 0 0-.463.022v-.254c.177-.014.376-.024.54-.024.218 0 .444.017.584.116.144.102.171.244.171.43v.743zm.727-1.784h.35v1.784h-.35z"/></svg>
